!!!OTL: 731a. Frueher Tod der Geliebten.
!!!ARE: Europa, Mitteleuropa, Deutschland, Elberfeld
!!!SCT: E0731
!!!TXL: @@DE
!!!YEM: Copyright 1995, estate of Helmut Schaffrath.
**kern	**text
*ICvox	*
*M3/4	*
*k[]	*
*C:	*
!LO:TX:a:t=Langsam.	!
{16ccL	Auf
16bJ	.
16aL	dem
16gJ	.
=1	=1
(8.gL	See
16fJ	.
8e)	.
8e	da
8f	ſchwimmt
8a	ein
=2	=2
4a	Schwanen,
4g}	.
{16ccL	Schwarʒbrauns
16bJ	.
16aL	.
16gJ	.
=3	=3
(8.gL	Aeuglein,
16fJ	.
8e)	.
8e	wie
8f	die
8a	Ko-
=4	=4
4a	-ral-
4g	-len
8r}	.
{8g	Sag,
=5	=5
16gL	Mäd-
16aJ	.
16bL	-chen,
16gJ	.
8.cc	wie
16ee	biſt
8dd	du
8cc	ſo
=6	=6
16ccL	ſchön
16bJ	.
16aL	ge-
16gJ	.
8g}	-ſtalt,
{8cc	gleich
16gL	wie
16aJ	.
16gL	die
16fJ	.
=7	=7
8.eL	Ro-
16fJ	.
4g	-ſen
16gL	in
16fJ	.
16dL	dem
16fJ	.
=8	=8
(4f	Wald?
4e;)}	.
==	==
!!!AGN: Liebes - Lied, Leid, Klage, Tod
!!!ONB: ESAC (Essen Associative Code) Database: ERK2
!!!AMT: simple triple
!!!AIN: vox
!!!EED: Helmut Schaffrath
!!!EEV: 1.0
!!!GTL: Liebeslieder [Neuere (aus dem 18. bis 19. Jahrh.) - Liebesleid] 678-740
!!!URL-scan: https://rosdok.uni-rostock.de/mcrviewer/recordIdentifier/rosdok_ppn745177662/iview2/phys_0537.iview2?x=193.8995864193107&y=1073.2712089286651&scale=0.7029437510502773&rotation=0&layout=singlePageLayout
!!!ENC: Anna Maria Matuszewska
!!!EEV: 2024/12/16
*-	*-
